X: 1
T: Saut du Lapin 
T:(Rabbit's Leap)
O: Quebec
R: reel
M: C
L: 1/8
K: G
B| "G"BcBA GFGB | "G"d2 BG "Am"A3A | "D7"ABcB ABcd  |"C"e2f2 "D7"(3efed2 |
 "G"BcBA GFGB | "G"d2 BG "Am"A3A | "D7"ABcB ABcd  |"D7"eAfA "G"[g3B3] :|
|: g|"G"gdBG d2ef | gdBG d3D | "Am"FdDd FdDd| "D7"FdDd Bdef|
"G"gdBG d2ef | gdBG d3D | "Am"FdDd FdDd|"D7"FdDd "G"[g3B3] :|
